icons/lungs_fill.svg

<svg width="48" height="48" viewBox="0 0 48 48" fill="none" xmlns="http://www.w3.org/2000/svg">
<path d="M16.542 11.991C22.3921 11.9958 21.8536 19.9527 21.8511 23.1357C21.8478 27.198 22.8451 35.3972 19.7112 38.5181C16.5177 41.6984 10.1346 43.2847 6.94587 40.6296C3.75713 37.9745 9.09663 11.9849 16.542 11.991Z" fill="black"/>
<path d="M31.4826 12.0033C25.6326 11.9985 26.158 19.9563 26.1554 23.1392C26.152 27.2016 25.1413 35.3991 28.27 38.5252C31.4583 41.7107 37.8388 43.3074 41.0319 40.6576C44.2249 38.0077 38.928 12.0094 31.4826 12.0033Z" fill="black"/>
<path fill-rule="evenodd" clip-rule="evenodd" d="M23.0175 5.99927C23.0175 5.99927 23.0175 5.99915 24.0175 5.99997C25.0175 6.00079 25.0175 6.00091 25.0175 6.00091L25.0056 20.4938C25.0039 22.5951 24.0675 23.7995 23.0074 24.4169C22.51 24.7066 22.0215 24.847 21.6634 24.9163C21.4824 24.9514 21.3289 24.9694 21.2159 24.9787C21.1592 24.9834 21.1123 24.9859 21.0765 24.9873C21.0587 24.988 21.0436 24.9884 21.0314 24.9886L21.0154 24.9888L21.0091 24.9888L21.0052 24.9888C21.0052 24.9888 21.004 24.9888 21.0048 23.9888C21.0056 22.9888 21.0045 22.9888 21.0045 22.9888H21.0035L21.0016 22.9889L20.9986 22.9889L20.9954 22.9889C20.9954 22.9889 20.9976 22.9889 21.0004 22.9887C21.0086 22.9884 21.0261 22.9876 21.0514 22.9855C21.1024 22.9813 21.1831 22.9722 21.2832 22.9528C21.4872 22.9133 21.7484 22.8357 22.0009 22.6886C22.4404 22.4327 23.0044 21.8892 23.0056 20.4922L23.0175 5.99927Z" fill="black"/>
<path fill-rule="evenodd" clip-rule="evenodd" d="M25.0175 6.00091C25.0175 6.00091 25.0175 6.00079 24.0175 5.99997C23.0175 5.99915 23.0175 5.99927 23.0175 5.99927L23.0056 20.4922C23.0039 22.5935 23.9382 23.7994 24.9974 24.4185C25.4943 24.709 25.9825 24.8502 26.3405 24.9201C26.5215 24.9555 26.675 24.9738 26.7879 24.9833C26.8446 24.988 26.8916 24.9906 26.9273 24.9921C26.9452 24.9928 26.9603 24.9932 26.9724 24.9934L26.9884 24.9937L26.9947 24.9937L26.9974 24.9937L26.9986 24.9937C26.9986 24.9937 26.9998 24.9937 27.0006 23.9937C27.0014 22.9937 27.0026 22.9937 27.0026 22.9937L27.0036 22.9937L27.0055 22.9937L27.0085 22.9938L27.0117 22.9938C27.0117 22.9938 27.0107 22.9938 27.0066 22.9936C26.9984 22.9933 26.981 22.9924 26.9557 22.9903C26.9047 22.986 26.824 22.9768 26.724 22.9572C26.52 22.9174 26.2589 22.8393 26.0067 22.6919C25.5676 22.4352 25.0044 21.8908 25.0056 20.4938L25.0175 6.00091Z" fill="black"/>
</svg>

<svg
  xmlns="http://www.w3.org/2000/svg"
  width="24"
  height="24"
  viewBox="0 0 24 24"
  fill="none"
  stroke="currentColor"
  stroke-width="2"
  stroke-linecap="round"
  stroke-linejoin="round"
>
  <path d="M16.542 11.991c5.85.005 5.312 7.962 5.31 11.145-.004 4.062.993 12.261-2.14 15.382-3.194 3.18-9.577 4.767-12.766 2.112s2.15-28.645 9.596-28.639" />
  <path d="M31.483 12.003c-5.85-.005-5.325 7.953-5.328 11.136-.003 4.063-1.014 12.26 2.115 15.386 3.188 3.186 9.569 4.782 12.762 2.133s-2.104-28.649-9.55-28.655" />
  <path
    fill-rule="evenodd"
    d="M23.018 6h2l-.012 14.494c-.002 2.101-.939 3.305-1.999 3.923a4.3 4.3 0 0 1-1.976.572h-.026v-2h-.01H21q.014 0 .051-.004a2.316 2.316 0 0 0 .95-.297c.44-.255 1.003-.799 1.005-2.196z"
    clip-rule="evenodd"
  />
  <path
    fill-rule="evenodd"
    d="M25.018 6h-2l-.012 14.492c-.002 2.101.932 3.307 1.991 3.927a4.3 4.3 0 0 0 1.975.574H27l.002-1c0-1 .002-1 .002-1h.009-.005q-.014 0-.051-.003a2.316 2.316 0 0 1-.949-.298c-.44-.257-1.003-.801-1.001-2.198z"
    clip-rule="evenodd"
  />
</svg>
